X:523
T: "Herbstfreude"
N: Z1203
O: Europa, Mitteleuropa, Deutschland, Bayern; Tirol
R: Liebes - Lied
M: 3/4
L: 1/8
K: A
AB | c3cc2 | d2B2
Bc | d3dd2 | e2z2
AB | c3cc2 | d2B2
Bc | d3dd2 | c4

@@@ Tune index: 10281
